svg/jersey.svg

<svg height="1024" width="896" xmlns="http://www.w3.org/2000/svg">
  <path d="M704 0H512.5c0 0-0.75 64-96.625 64S320.5 0 320.5 0h-192c0 128-1.598 384-128 384L0 960c0 0 0 64 64 64h704c64 0 64-64 64-64V384C705.598 384 704 128 704 0zM95.322 960c-31.946 0-31.946-31.946-31.946-31.946l0.5-480.024L63.71 448C182.875 384 192 256 192 64h64c0 0 0 191.746 160 191.746S576 64 576 64s37.583 0 64 0c0 185.875 32.431 275.776 63.998 338.875L703.999 960H95.322zM480 384l-32 32v320l32 32h128l32-32V416l-32-32H480zM576.062 704h-64V448h64V704zM224 384l-32 32v320l32 32h128l32-32V416l-32-32H224zM320.062 704h-64V448h64V704z" />
</svg>

<svg height="1024" width="896" xmlns="http://www.w3.org/2000/svg">
  <path d="M704 0h-192c0 32-33 64-97 64s-95-32-95-64h-192c0 128-2 384-128 384 0 0-1 544-1 576s32 64 64 64 672 0 704 0 64-32 64-64 0-576 0-576c-126 0-128-256-128-384z m-609 960c-16 0-31-10-31-32 0-32 0-480 0-480 119-64 128-192 128-384h64c0 96 32 191 160 192s160-96 160-192h64c0 186 32 276 64 339v557s-593 0-609 0z m385-576l-32 32v320l32 32h128l32-32v-320l-32-32h-128z m96 320h-64v-256h64v256z m-352-320l-32 32v320l32 32h128l32-32v-320l-32-32h-128z m96 320h-64v-256h64v256z" />
</svg>
